svg/whatsapp.svg

<svg xmlns="http://www.w3.org/2000/svg" viewBox="0 0 24 24"><path d="M12.04 2c-5.46 0-9.91 4.45-9.91 9.91 0 1.75.46 3.45 1.32 4.95L2.05 22l5.25-1.38c1.45.79 3.08 1.21 4.74 1.21 5.46 0 9.91-4.45 9.91-9.91 0-2.65-1.03-5.14-2.9-7.01A9.82 9.82 0 0 0 12.04 2m.01 1.67c2.2 0 4.26.86 5.82 2.42a8.23 8.23 0 0 1 2.41 5.83c0 4.54-3.7 8.23-8.24 8.23-1.48 0-2.93-.39-4.19-1.15l-.3-.17-3.12.82.83-3.04-.2-.32a8.2 8.2 0 0 1-1.26-4.38c.01-4.54 3.7-8.24 8.25-8.24M8.53 7.33c-.16 0-.43.06-.66.31-.22.25-.87.86-.87 2.07 0 1.22.89 2.39 1 2.56.14.17 1.76 2.67 4.25 3.73.59.27 1.05.42 1.41.53.59.19 1.13.16 1.56.1.48-.07 1.46-.6 1.67-1.18s.21-1.07.15-1.18c-.07-.1-.23-.16-.48-.27-.25-.14-1.47-.74-1.69-.82-.23-.08-.37-.12-.56.12-.16.25-.64.81-.78.97-.15.17-.29.19-.53.07-.26-.13-1.06-.39-2-1.23-.74-.66-1.23-1.47-1.38-1.72-.12-.24-.01-.39.11-.5.11-.11.27-.29.37-.44.13-.14.17-.25.25-.41.08-.17.04-.31-.02-.43-.06-.11-.56-1.35-.77-1.84-.2-.48-.4-.42-.56-.43-.14 0-.3-.01-.47-.01"/></svg>

<?xml version="1.0" encoding="UTF-8"?><!DOCTYPE svg PUBLIC "-//W3C//DTD SVG 1.1//EN" "http://www.w3.org/Graphics/SVG/1.1/DTD/svg11.dtd"><svg xmlns="http://www.w3.org/2000/svg" xmlns:xlink="http://www.w3.org/1999/xlink" version="1.1" id="mdi-whatsapp" width="24" height="24" viewBox="0 0 24 24"><path d="M12.04 2C6.58 2 2.13 6.45 2.13 11.91C2.13 13.66 2.59 15.36 3.45 16.86L2.05 22L7.3 20.62C8.75 21.41 10.38 21.83 12.04 21.83C17.5 21.83 21.95 17.38 21.95 11.92C21.95 9.27 20.92 6.78 19.05 4.91C17.18 3.03 14.69 2 12.04 2M12.05 3.67C14.25 3.67 16.31 4.53 17.87 6.09C19.42 7.65 20.28 9.72 20.28 11.92C20.28 16.46 16.58 20.15 12.04 20.15C10.56 20.15 9.11 19.76 7.85 19L7.55 18.83L4.43 19.65L5.26 16.61L5.06 16.29C4.24 15 3.8 13.47 3.8 11.91C3.81 7.37 7.5 3.67 12.05 3.67M8.53 7.33C8.37 7.33 8.1 7.39 7.87 7.64C7.65 7.89 7 8.5 7 9.71C7 10.93 7.89 12.1 8 12.27C8.14 12.44 9.76 14.94 12.25 16C12.84 16.27 13.3 16.42 13.66 16.53C14.25 16.72 14.79 16.69 15.22 16.63C15.7 16.56 16.68 16.03 16.89 15.45C17.1 14.87 17.1 14.38 17.04 14.27C16.97 14.17 16.81 14.11 16.56 14C16.31 13.86 15.09 13.26 14.87 13.18C14.64 13.1 14.5 13.06 14.31 13.3C14.15 13.55 13.67 14.11 13.53 14.27C13.38 14.44 13.24 14.46 13 14.34C12.74 14.21 11.94 13.95 11 13.11C10.26 12.45 9.77 11.64 9.62 11.39C9.5 11.15 9.61 11 9.73 10.89C9.84 10.78 10 10.6 10.1 10.45C10.23 10.31 10.27 10.2 10.35 10.04C10.43 9.87 10.39 9.73 10.33 9.61C10.27 9.5 9.77 8.26 9.56 7.77C9.36 7.29 9.16 7.35 9 7.34C8.86 7.34 8.7 7.33 8.53 7.33Z" /></svg>
